!!!!SEGMENT: pl-sa--552-a-ix-32--031_anonim--allegro-moderato.krn
!!!cenid: 18xx:542
!!!COM: Anonim
!!!COM-rismid: pe30004985
!!!CDT:
!!!CNT:
!!!OTL: Allegro moderato
!!!PDT:
!!!AGN: Secular
!!!SMS-siglum: PL-SA
!!!SMS-shelfmark: 552/A IX 32
!!!SMS-shelfwork: 031 W
!!!SMS-variant:
!!!SMS-altvar:
!!!NIFC-rismid: 1001069573
!!!URL-scan: http://bc.bdsandomierz.pl/dlibra/publication/1308/edition/1276/content
!!!ONB-nifc: Str. 15 – str. 16 (s. 5)
!!!key:
**kern	**kern	**dynam
*part1	*part1	*part1
*staff2	*staff1	*
*Iempty	*Iempty	*
*I"	*I"	*
*I'keyb	*I'keyb	*
*clefF4	*clefG2	*
*k[]	*	*
*C:	*	*
*M4/4	*M4/4	*
*met(c)	*met(c)	*
*>[A,A1,A,A2,B]	*>[A,A1,A,A2,B]	*
=1	=1	=1
*>A	*>A	*>A
*clefG2	*	*
!	!LO:TX:a:i:t=Allegro Moderato	!LO:DY:b:rj
!	!LO:TX:b:i:t=legato	!
8c/L	(>4.cc\	p
8e/	.	.
8g/	.	.
!	!LO:TX:a:i:t=e	!
8e/J	8ee 8cc\	.
8c/L	8ff\L	.
8f/	8dd\	.
8g/	8a\	.
8f/J	8dd\J)	.
=2	=2	=2
8c/L	4dd\	.
8e/	.	.
8g/	8cc\	.
8e/J	8r	.
*rep	*	*
8c/L	8r	.
8e/	8cc'>\L	.
8g/	8dd'>\	.
8e/J	8ee'>\J	.
*Xrep	*	*
=3	=3	=3
8c/L	8ff'>\L	.
8f/	8gg'>\	.
8a/	8aa'>\	.
8f/J	8bb'>\J	.
*rep	*	*
8c/L	4ccc\	.
8f/	.	.
.	8qccc/	.
8a/	8bb\L	.
8f/J	8aa\J	.
*Xrep	*	*
=4	=4	=4
*	*2\right	*
8c/L	(>2ff#X\	.
8d#X/	.	.
8f#X/	.	.
8d#/J	.	.
8c/L	4gg\)	.
8e/	.	.
8g/	8r	.
8e/J	8gg\	.
=5	=5	=5
8f/L	(>8gg\L	.
8g/	8dd\)	.
8f/	8dd'>\	.
8g/J	8dd'>\J	.
8e/L	(>8dd\L	.
8g/	8cc\	.
8e/	8aa\	.
8g/J	8gg\J)	.
=6	=6	=6
8B/L	8gg\L	.
8g/J	8dd\	.
*rep	*	*
8B/L	8dd\	.
8g/J	8dd#X\J	.
*Xrep	*	*
8c/L	(>8ff\L	.
8g/J	8ee\	.
*rep	*	*
8c/L	8ccc\	.
8g/J	8gg#X\J)	.
*Xrep	*	*
=7	=7	=7
*clefF4	*	*
8F\L	8bb\L	.
8A\	(>8aa\	.
8d\	8gg\	.
8f\J	8ff\J	.
*rep	*	*
8F\L	8ee\L	.
8A\	8dd\	.
8d\	8ff\)	.
8f\J	8dd\J	.
*Xrep	*	*
=8	=8	=8
8e\L	2cc\	.
8G\	.	.
8e-X\	.	.
8G\J	.	.
.	16qqdd/LL	.
.	16qqcc/JJ	.
8d\L	8b\L	.
8G\	8gg\	.
8B\	8ff\	.
8G\J	8dd\J	.
=9	=9	=9
8C\L	4.cc\	.
8E\	.	.
8G\	.	.
8c\J	8ee\	.
!!LO:LB:g=original
8C\L	8ff\L	.
8F\	8dd\	.
8G\	8a\	.
8d\J	8dd\J	.
=10	=10	=10
8C\L	4dd\	.
8E\	.	.
8G\	8cc\	.
8c\J	8r	.
*rep	*	*
8C\L	8r	.
8E\	8cc'>\L	.
8G\	8dd'>\	.
8c\J	8ee'>\J	.
*Xrep	*	*
=11	=11	=11
8C\L	8ff'>\L	.
8F\	8gg'>\	.
8A\	8aa'>\	.
8c\J	8bb'>\J	.
*rep	*	*
8C\L	4ccc\	.
8F\	.	.
.	16qqccc/LL	.
.	16qqbb/JJ	.
8A\	8bb\L	.
8c\J	8aa\J	.
*Xrep	*	*
=12	=12	=12
8C\L	(>2ff#X\	.
8D#X\	.	.
8F#X\	.	.
8c\J	.	.
8C\L	4gg\)	.
8E\	.	.
8G\	8r	.
8c\J	8gg\	.
=13	=13	=13
8F\L	(8gg\L	.
8G\J	8dd\)	.
*rep	*	*
8F\L	8dd'>\	.
8G\J	8dd'>\J	.
*Xrep	*	*
8E\L	8dd\L	.
8G\J	8cc\	.
*rep	*	*
8E\L	8aa\	.
8G\J	8gg\J	.
*Xrep	*	*
=14	=14	=14
8BB\L	(>8gg\L	.
8G\J	8dd\	.
*rep	*	*
8BB\L	8dd'\)	.
8G\J	8dd#X'\J	.
*Xrep	*	*
8C\L	8ff\L	.
8G\J	8ee\	.
*rep	*	*
8C\L	8ccc\	.
8G\J	8bb\J	.
*Xrep	*	*
=15	=15	=15
*	*Xtuplet	*
4C\	12bb'>\L	.
.	12aa'>\	.
.	12gg'>\J	.
4A 4F#X 4D\	12ff#X'>\L	.
.	12ee'>\	.
.	12dd'>\J	.
*rep	*	*
4C\	12cc'>\L	.
.	12b'>\	.
.	12a'>\J	.
4A 4F# 4D\	12g'</L	.
.	12f'</	.
.	12e'</J	.
*Xrep	*	*
=16	=16	=16
4BB\	12d/L	.
.	12f#X/	.
.	12g/J	.
4G 4D\	4d/	.
*rep	*	*
!	!	!LO:DY:b:rj
4BB\	12dd\L	p
.	12ff\	.
.	12gg\J	.
4G 4D\	4dd\	.
*Xrep	*	*
=17	=17	=17
4FF#X/	12d'</L	f
.	12e'</	.
.	12f#X'</J	.
4D 4AA/	12g'</L	.
.	12a'</	.
.	12b'</J	.
!!LO:LB:g=original
*rep	*	*
4FF#X/	12cc'>\L	.
.	12dd'>\	.
.	12ee'>\J	.
4D 4AA/	12ff'>\L	.
.	12gg'>\	.
.	12aa'>\J	.
*Xrep	*	*
=18	=18	=18
4GG/	12bb\L	.
.	12ff#X\	.
.	12gg\J	.
4D 4BB/	4dd\	.
*rep	*	*
4GG/	12b/L	.
.	12f/	p
.	12g/J	.
4D 4BB/	4d/	.
*Xrep	*	*
=19	=19	=19
!	!LO:TX:b:i:t=smorz.	!
4r	(>12bb\L	.
.	12ff#X\	.
.	12gg\J	.
4d#X\	12bb\L	.
.	12ff#\	.
.	12gg\J	.
4e\	12bb\L)	.
.	12aa'>\	.
.	12gg'>\J	.
4B\	12ff#'>\L	.
.	12ee'>\	.
.	12dd#X'>\J	.
=20	=20	=20
4r	(>12ee\L	.
.	12dd#X\	.
.	12ee\J	.
4c\	12gg\L	.
.	12dd#\	.
.	12ee\J	.
4e\	12gg\L)	.
.	12ffn'>\	.
.	12ee'>\J	.
4G#X\	12dd#'>\L	.
.	12cc'>\	.
.	12b'>\J	.
=21	=21	=21
4r	(>12cc\L	.
.	12b\	.
.	12cc\J	.
4A\	12ee\L	.
.	12b\	.
.	12cc\J	.
4c\	12ee\L	.
.	12dd'>\)	.
.	12cc'>\J	.
4E-X\	12b'>\L	.
.	12a'>\	.
.	12g'>\J	.
=22	=22	=22
4D\	8f#X\L	.
.	8dd'>\	.
4r	8dd'>\	.
.	8dd'>\J	.
*clefG2	*	*
8r	8dd'>\L	.
8bL 8g/	8dd'>\	.
8a 8f#X/	8dd'>\	.
8bJ 8g/	8dd'>\J	.
=23	=23	=23
8cc 8a/	8dd'>\L	.
8r	8dd'>\	.
8a 8f#X/	8dd'>\	.
8r	8dd'>\J	.
*	*rep	*
8f# 8d/	8dd'>\L	.
8r	8dd'>\	.
8d 8c/	8dd'>\	.
8r	8dd'>\J	.
*	*Xrep	*
=24	=24	=24
*^	*	*
4ryy	4d/ 4B/	8dd\L	.
.	.	8ee\	.
2g/	4r	8ff#X\	.
.	.	8gg\J	.
!!LO:LB:g=original
.	4c/	8dd#X\L	.
.	.	8ee\	.
4e/	4e\	8cc\	.
.	.	8a\J	.
*v	*v	*	*
=25	=25	=25
*clefF4	*	*
4D\	4.g/	.
4B 4G\	.	.
.	16a/LL	.
.	16g/JJ	.
!	!LO:TUP:a:problem:klamra łukowa	!
4D\	12f#X\L	.
.	12a\	.
.	12cc\J	.
!	!LO:TUP:b:problem:klamra łukowa	!
4A 4F#X\	12ee/L	.
.	12dd/	.
.	12cc/J	.
=26	=26	=26
4A 4F 4D\	8dd/L	.
.	8cc/J	.
8B 8G\	4b\	.
8d\	.	.
8d\L	4r	.
8d 8B\	.	.
8d 8A\	4dd\	.
8dJ 8B\	.	.
=27	=27	=27
8d\L	8dd\L	.
8d\	8ee\	.
8d 8A\	8ff#X\	.
8d\J	8gg\J	.
8dL 8F#X 8D\	8aa\L	.
8d\	8bb\	.
8d 8D\	8ccc\	.
8d\J	8ddd\J	.
=28	=28	=28
4G\	12ccc\L	.
.	12bb\	.
.	12aa\J	.
4d 4B\	12gg\L	.
.	12ff#X\	.
.	12ffn\J	.
4C\	12dd#X\L	.
.	12ee\	.
.	12ff\J	.
4A 4E\	12gg\L	.
.	12ee\	.
.	12cc\J	.
=29	=29	=29
4D\	(>8b\L	.
.	8dd\)	.
4B 4G\	8dd'>\	.
.	8dd'>\J	.
4D\	8dd\L	.
.	8cc#X\	.
4A 4F#X\	8ccn\	.
.	8a\J	.
=30	=30	=30
8BL 8G\	4g/	.
8d\	.	.
8d\	4r	.
8d\J	.	.
8d\L	8r	.
8d\	8dd\L	.
8d\	8ee\	.
8dJ 8cn\	8ff#X\J	.
=31	=31	=31
8G\	8gg\	.
8fL 8D\	8dddL 8dd\	.
8f 8D\	8ddd 8dd\	.
8f 8D\	8dddJ 8dd\	.
8f 8D\	8dddL 8dd\	.
8f 8D\	8ddd 8dd\	.
8f 8E\	8ccc#X 8dd\	.
8fJ 8F#X\	8cccnJ 8dd\	.
!!LO:LB:g=original
=32	=32	=32
4d 4G\	4bb 4dd\	.
*clefG2	*	*
4g/	4gg\	.
!LO:TX:a:t=P:problem:8\right	!	!
8g/L	8gg\L	.
8g#X/	8gg#X\	.
8a/	8aa\	.
8c#X/J	8cc#X\J	.
=33	=33	=33
8d/L	8dd\L	.
8e/	8ee\	.
8f/	8ff\	.
8A#X/J	8a#X\J	.
8B/L	8b/L	.
8c/	8cc/	.
8d/	8dd/	.
8F#X/J	8f#X/J	.
=34	=34	=34
*>A1	*>A1	*>A1
*clefF4	*	*
!	!LO:TX:a:t=P:problem:łuk nad woltą 1.	!
8G\L	8g/L	.
8F#X\	8f#X/	.
8G\	8g/	.
8F#\J	8f#/J	.
8G\L	8g/L	.
8G#X\	8g#X/	.
8A\	8a/	.
8B\J	8b/J	.
=35:|!	=35:|!	=35:|!
*>A2	*>A2	*>A2
!	!LO:TX:a:t=P:problem:łuk nad voltą 2.	!
8G\L	8g/L	.
8G#X\	8g#X/	.
8A\	8a/	.
8C#X\J	8c#X/J	.
8D\L	8d/L	.
8E\	8e/	.
8F\	8f/	.
8AA-X\J	8A-X/J	.
=36	=36	=36
*>B	*>B	*>B
!LO:N:vis=2	!LO:N:vis=2	!
1GG;>	1G;>	.
!	!LO:TX:b:i:t=V. S.	!
.	.	.
*clefG2	*	*
=37	=37	=37
8c/L	4.cc\	.
8e-X/	.	.
8g/	.	.
8e-/J	8ee-X\	.
8c/L	8ff\L	.
8f/	8dd\	.
8g/	8a\	.
8f/J	8dd\J	.
=38	=38	=38
8c/L	4dd\	.
8e-X/	.	.
8g/	8cc\	.
8e-/J	8r	.
8c/L	8r	.
8en/	8cc\L	.
8g/	8dd\	.
8e/J	8ee\J	.
=39	=39	=39
8c/L	8ff\L	.
8f/	8gg\	.
8a-X/	8aa-X\	.
8f/J	8bb-X\J	.
*rep	*	*
8c/L	4ccc\	.
8f/	.	.
.	16qqccc/LL	.
.	16qqbb-/JJ	.
8a-/	8bb-\L	.
8f/J	8aa-\J	.
*Xrep	*	*
!!LO:LB:g=original
=40	=40	=40
8c/L	2gg\	.
8e-X/	.	.
8f#X/	.	.
8a/J	.	.
8c/L	4ff#X\	.
8e-/	.	.
8f#/	4r	.
8a/J	.	.
=41	=41	=41
8B-X/L	4.aa\	.
8e/	.	.
8g/	.	.
8e/J	8bb-X\	.
8c/L	8ccc\L	.
8d/	8aa\	.
8a/	8ee\	.
8d/J	8ff#X\J	.
=42	=42	=42
8B-X/L	2aa\	.
8d/	.	.
8g/	.	.
8d/J	.	.
*rep	*	*
8B-/L	8gg\L	.
8d/	8dd\	.
8g/	8ee\	.
8d/J	8ff#X\J	.
*Xrep	*	*
=43	=43	=43
*rep	*	*
8B-/L	8gg\L	.
8d/	8aa-X\	.
8g/	8bb-X\	.
8d/J	8ccc\J	.
*Xrep	*	*
*rep	*	*
8B-/L	4ddd\	.
8d/	.	.
.	16qqeee-X/LL	.
.	16qqddd/JJ	.
8g/	8ccc\L	.
8d/J	8bb-\J	.
*Xrep	*	*
=44	=44	=44
8Bn/L	2aa\	.
8d/	.	.
8e/	.	.
8d/J	.	.
*rep	*	*
8Bn/L	8gg#X\L	.
8d/	8ee\	.
8e/	8ff#X\	.
8d/J	8gg#\J	.
*Xrep	*	*
=45	=45	=45
8c/L	8aa\L	.
8e/	8bb\	.
8g/	8ccc\	.
8e/J	8ddd\J	.
*rep	*	*
8c/L	4eee\	.
8e/	.	.
.	16qqfff/LL	.
.	16qqeee/JJ	.
8g/	8ddd\L	.
8e/J	8ccc\J	.
*Xrep	*	*
=46	=46	=46
8d/L	8ccc\L	.
8f/J	8bb-X\	.
*rep	*	*
8d/L	8aa\	.
8f/J	8bb-\J	.
*Xrep	*	*
*rep	*	*
8d/L	8aa\L	.
8f/J	8bb-\	.
8d/L	8ddd\	.
8f/J	8bb-\J	.
*Xrep	*	*
=47	=47	=47
8d#X/L	8bb-X\L	.
8f#X/J	8aa\	.
*rep	*	*
8d#/L	8gg#X\	<
8f#/J	8aa\J	.
8d#/L	8gg#\L	.
8f#/J	8aa\	.
8d#/L	8ccc\	.
8f#/J	8aa\J	.
*Xrep	*	*
=48	=48	=48
!	!LO:TX:a:t=P:problem:# above	!
4e/	(>8gg#X\L	.
.	8ee\)	.
4r	8ee'>\	.
.	8ee'>\J	.
8r	8ee'>\L	.
8g#XL 8e/	8ee'>\	.
8f#X 8d#X/	8ee'>\	.
8g#J 8e/	8ee'>\J	.
!!LO:PB:g=original
=49	=49	=49
4a 4f#X/	8ee'>\L	.
.	8ee'>\	.
4r	8ee'>\	.
.	8ee'>\J	.
*	*rep	*
8r	8ee'>\L	.
8aL 8f#/	8ee'>\	.
8g#X 8e/	8ee'>\	.
8aJ 8f#/	8ee'>\J	.
*	*Xrep	*
=50	=50	=50
2b 2g#X/	8ee\L	.
.	8ddd\	.
.	8bb\	.
.	8gg#X\J	.
2e 2G/	8ee\L	.
.	8ff\	.
.	8dd\	.
.	8b\J	.
=51	=51	=51
4e 4A/	8cc'>\L	.
.	8cc'>\	.
4r	8cc'>\	.
.	8cc'>\J	.
*	*rep	*
8r	8cc'>\L	.
8eL 8c/	8cc'>\	.
8d 8B/	8cc'>\	.
8eJ 8c/	8cc'>\J	.
*	*Xrep	*
=52	=52	=52
*	*rep	*
4f 4d/	8cc'>\L	.
.	8cc'>\	.
4r	8cc'>\	.
.	8cc'>\J	.
*	*Xrep	*
*	*rep	*
8r	8cc'>\L	.
8fL 8d/	8cc'>\	.
8e 8c/	8cc'>\	.
8fJ 8d/	8cc'>\J	.
*	*Xrep	*
=53	=53	=53
2g 2e/	8cc\L	.
.	8bb-X\	.
.	8gg\	.
.	8ee\J	.
*clefF4	*	*
2c 2E\	8cc\L	.
.	8dd-X\	.
.	8b-X\	.
.	8g\J	.
=54	=54	=54
4c 4F\	8a-X/L	.
.	8a-/	.
4r	8a-/	.
.	8a-/J	.
*	*rep	*
8r	8a-/L	.
8cL 8A-X\	8a-/	.
8B-X 8G\	8a-/	.
8cJ 8A-\	8a-/J	.
*	*Xrep	*
=55	=55	=55
*	*rep	*
4d-X 4B-X\	8a-/L	.
.	8a-/	.
4r	8a-/	.
.	8a-/J	.
*	*Xrep	*
*	*rep	*
8r	8a-/L	.
8d-L 8B-\	8a-/	.
8c 8A-X\	8a-/	.
8d-J 8B-\	8a-/J	.
*	*Xrep	*
=56	=56	=56
*2\right	*	*
2e-X 2c\	8a-X\L	.
.	8g\	.
.	8a-\	.
.	8b-X\J	.
2c 2A-X\	8cc\L	.
.	8dd-X\	.
.	8ee-X\	.
.	8ff\J	.
=57	=57	=57
[>2A-X [>2C [<2AA-X\	2gg-X\	.
4.A-] 4.C] 4.AA-\]	4.ff#X\	.
8r	8gg-\	.
!!LO:LB:g=original
=58	=58	=58
8GG/	(>8gg\L	.
*clefG2	*	*
8g/L	8b\)	.
8f/	8b'>\	.
8g/J	8b'>\J	.
8e/L	8dd\L	.
8g/	8cc\	.
8e/	8aa\	.
8g/J	8gg\J	.
=59	=59	=59
8B/L	8gg\L	.
8g/J	8dd\	.
*rep	*	*
8B/L	8dd\	.
8g/J	8dd#X\J	.
*Xrep	*	*
8c/L	8ff\L	.
8g/J	8ee\	.
*rep	*	*
8c/L	8ccc\	.
8g/J	8gg#X\J	.
*Xrep	*	*
*clefF4	*	*
=60	=60	=60
!LO:TX:a:t=P:problem:klucz F4 nie wyświetla się	!	!
8F\L	8bb\L	.
8A\	8aa\	.
8d\	8gg\	.
8f\J	8ff\J	.
*rep	*	*
8F\L	8ee\L	.
8A\	8dd\	.
8d\	8ff\	.
8f\J	8dd\J	.
*Xrep	*	*
=61	=61	=61
8e\L	2cc\	.
8G\	.	.
8e-X\	.	.
8G\J	.	.
.	16qqdd/LL	.
.	16qqcc/JJ	.
8d\L	8b\	.
8G\	8gg\L	.
8B\	8gg\	.
8G\J	8gg\J	.
=62	=62	=62
8F\L	8gg\L	.
8G\J	8dd\	.
*rep	*	*
8F\L	8dd\	.
8G\J	8dd\J	.
*Xrep	*	*
8E\L	8dd\L	.
8G\J	8b\	.
*rep	*	*
8E\L	8aa\	.
8G\J	8gg\J	.
*Xrep	*	*
=63	=63	=63
8BB\L	8gg\L	.
8G\J	8dd\	.
*rep	*	*
8BB\L	8dd\	.
8G\J	8dd#X\J	.
*Xrep	*	*
8C\L	8ff\L	.
8G\J	8ee\	.
*rep	*	*
8C\L	8ccc\	.
8G\J	8bb\J	.
*Xrep	*	*
=64	=64	=64
!	!LO:TUP:a:problem:klamra łukowa	!
4C\	12bb\L	.
.	12aa\	.
.	12gg'>\J	.
4A 4F#X 4D\	12ff#X'>\L	.
.	12ee'>\	.
.	12dd'>\J	.
*rep	*	*
4A 4F# 4D\	12cc'>\L	.
.	12b'>\	.
.	12a'>\J	.
4A 4F# 4D\	12g'</L	.
.	12f'</	.
.	12e'</J	.
*Xrep	*	*
=65	=65	=65
4BB/	12d/L	.
.	12f#X/	.
.	12g/J	.
4G 4D\	4d/	.
*rep	*	*
4G 4D\	12dd\L	.
.	12ff\	.
.	12gg\J	.
4G 4D\	4dd\	.
*Xrep	*	*
!!LO:LB:g=original
=66	=66	=66
4GG/	12G'</L	.
.	12A'</	.
.	12B'</J	.
4F 4D 4BB\	12c'</L	.
.	12B'</	.
.	12e'</J	.
*rep	*	*
4F 4D 4BB\	12f'>\L	.
.	12g'>\	.
.	12a'>\J	.
4F 4D 4BB\	12b'>\L	.
.	12cc'>\	.
.	12dd'>\J	.
*Xrep	*	*
=67	=67	=67
4GG/	12ee\L	.
.	12b\	.
.	12cc\J	.
4E 4C\	4g/	.
*rep	*	*
4E 4C\	12eee\L	.
.	12bb\	.
.	12aa\J	.
!	!	!LO:DY:b:rj
4E 4C\	4gg\	p
*Xrep	*	*
=68	=68	=68
4r	12eee\L	.
.	12ddd\	.
!	!LO:TX:b:i:t=smorz.	!
.	12ccc\J	.
*clefG2	*rep	*
4g#X/	12eee\L	.
.	12ddd\	.
.	12ccc\J	.
*	*Xrep	*
4a/	12eee\L	.
.	12ddd\	.
.	12ccc\J	.
4e/	12bb\L	.
.	12aa\	.
.	12gg#X\J	.
=69	=69	=69
4r	12aa\L	.
.	12gg#X\	.
.	12aa\J	.
4f/	12ccc\L	.
.	12gg#\	.
.	12bb\J	.
4a/	12ccc\L	.
.	12bb-X\	.
.	12aa\J	.
4c#X/	12gg#\L	.
.	12ff\	.
.	12ee\J	.
=70	=70	=70
*clefG2	*clefG2	*
4r	12ff\L	.
.	12ee\	.
.	12ff\J	.
4d/	12aa\L	.
.	12ee\	.
.	12ff\J	.
4f/	12aa\L	.
.	12gg\	.
.	12ff\J	.
4A-X/	12ee\L	.
.	12dd\	.
.	12cc\J	.
=71	=71	=71
4G/	8dd\L	.
.	8gg\	.
4r	8gg\	.
.	8gg\J	.
8r	8gg\L	.
8eL 8c/	8gg\	.
8f 8d/	8gg\	.
8eJ 8c/	8gg\J	.
=72	=72	=72
*clefF4	*	*
*	*rep	*
8f 8d\	8gg\L	.
8r	8gg\	.
8d 8B\	8gg\	.
8r	8gg\J	.
*	*Xrep	*
*	*rep	*
8B 8G\	8gg\L	.
8r	8gg\	.
!LO:TX:t=g\nf:problem:notatka z prawej strony nut	!	!
8G 8E\	8gg\	.
8r	8gg\J	.
*	*Xrep	*
!!LO:LB:g=original
=73	=73	=73
*^	*	*
4G 4E\	4ryy	8gg\L	.
.	.	8aa\	.
4ryy	2c\	8bb\	.
.	.	8ccc\J	.
2F\	.	8gg#X\L	.
.	.	8aa\	.
.	4A/	8ff\	.
.	.	8dd\J	.
*v	*v	*	*
=74	=74	=74
4G\	4.cc\	.
4c 4B\	.	.
.	16dd\LL	.
.	16cc\JJ	.
4G\	12b\L	.
.	12dd\	.
.	12ff\J	.
4d 4B\	12aa\L	.
.	12gg\	.
.	12ff\J	.
=75	=75	=75
8e 8c\	4ff\	.
8g\L	.	.
8g\	8ee\	.
8g\J	8r	.
8gL 8e\	4r	.
8g 8d\	.	.
8g 8e\	4gg\	sf
8g\J	.	.
=76	=76	=76
8gL 8e\	8gg\L	.
8g\	8aa\	.
8g 8d\	8bb\	.
8gJ 8G\	8ccc\J	.
8gL 8B\	8ddd\L	.
8g\	8eee\	.
8g 8G\	8fff\	.
8gJ 8c\	8aaa\J	.
=77	=77	=77
!	!LO:TX:a:t=f	!
4c\	12fff\L	.
!	!LO:TX:a:t=e	!
.	12eee\	.
!	!LO:TX:a:t=d	!
.	12ddd\J	.
4g 4e\	12ccc\L	.
.	12bb\	.
.	12bb-X\J	.
4F\	12gg#X\L	.
.	12aa\	.
.	12bb-\J	.
4d 4A\	12ccc\L	.
.	12aa\	.
.	12ff\J	.
=78	=78	=78
4G\	(>8ee'>\L	.
.	8gg'>\	.
4e 4c\	8gg'>\	.
.	8gg'>\J)	.
4G\	8gg\L	.
.	8ff#X\	.
4d 4B\	8ffn\	.
.	8dd\J	.
=79	=79	=79
8e 8c\	4cc\	.
8g\L	.	.
8g\	4r	.
8g\J	.	.
8g\L	8r	.
8g\	8gg\L	.
8g\	8aa\	.
8gJ 8d\	8bb\J	.
=80	=80	=80
8e 8c\	8ccc\	.
8GL 8AA/	8ggL 8g/	.
8G 8AA/	8gg 8g/	.
8GJ 8AA/	8ggJ 8g/	.
!!LO:LB:g=original
8GL 8GG/	8ggL 8g/	.
8G 8GG/	8gg 8g/	.
8G 8AA/	8ff#X 8g/	.
8GJ 8BB/	8ffnJ 8g/	.
=81	=81	=81
8G 8C\	8ee 8g/	.
8B\L	8b\L	.
8c\	8cc\	.
8d\J	8dd\J	.
8e-X\	8ee-X\	.
8G#X\L	8g#X/L	.
8A\	8a/	.
8B\J	8b/J	.
=82	=82	=82
8c\L	8cc/L	.
8E#X\	8e#X/	.
8F#X\	8f#X/	.
8G#X\J	8g#X/J	.
8A\L	8a/L	.
8BB\	8B/	.
8C\	8c/	.
8D\J	8d/J	.
=83	=83	=83
!	!LO:N:vis=4	!
4E-X\	2e-X/	.
4F#X 4FF#X/	.	.
!	!LO:N:vis=4	!
4G 4GG/	2dd 2b 2g/	.
4G 4GG/	.	.
=84	=84	=84
4C 4CC/	4ee 4cc 4g\	.
4r	4r	.
!LO:N:vis=4	!LO:N:vis=4	!
2GG 2GGG/	2bb 2gg 2dd 2b\	.
=85	=85	=85
2C 2CC/	2ccc 2gg 2ee 2cc\	.
2r	2r	.
==	==	==
*-	*-	*-
!!!system-decoration: {(s1,s2)}
!!!RDF**kern: > = above
!!!RDF**kern: < = below
!!!RDF**dynam: < = "cres:"
!!!EED: Mateusz Mrugas
!!!EST: 2020-12-13
!!!AIN: 1 empty
!!!ENC: Anastazja Marusiak
!!!END: 2020-06-18
